!!!OTL: "Die geraubte Koenigstochter" ES WAR EIN JAEGER WOHLGEMUTH
!!!ARE: Europa, Mitteleuropa, Deutschland
!!!SCT: Z1073
!!!YEM: Copyright 1995, estate of Helmut Schaffrath.
**kern
*ICvox
*Ivox
*M6/8
*k[f#]
*G:
{8d
=1
4g
8a
4b
8g
=2
4a
8g
4f#}
{8a
=3
4dd
8b
4a
16f#
16d
=4
4g
8e
4d
8r}
=5
{8g
8g
8g
8d
8B
8G
=6
8g
8g
8g
8d
8B}
{8g
=7
4g
8a
8.b
16cc
8b
=8
4a
16b
16a
4g
16r}
{16g
=9
4g
8a
8.b
16cc
8b
=10
4a
16b
16a
4g}
==
!!!AGN: Romanze, Ballade, Jaeger - Lied
!!!ONB: ESAC (Essen Associative Code) Database: ZUCCAL
!!!AMT: compound duple
!!!AIN: vox
!!!EED: Helmut Schaffrath
!!!EEV: 1.0
*-
